X: 1
T: Bonnie Dundee
M: 6/8
L: 1/8
R: jig
K: Gmaj
ded dBd|gfe d2c|BdD BdB|ABA ABc|
ded dBd|gfe d2c|BdG AdF|GAG G3:|
|:GGG GcB|ADD D3|AAA ABc|cBA B2G|
BAB cBc|dcd edc|BdG AdF|GAG G3:||
